assets/img/braze_icons/user-left-01.svg

<svg fill="none" height="24" viewBox="0 0 24 24" width="24" xmlns="http://www.w3.org/2000/svg"><g fill="#801ed7"><path d="m19.7071 15.7071c.3905-.3905.3905-1.0237 0-1.4142s-1.0237-.3905-1.4142 0l-3 3c-.1875.1875-.2929.4419-.2929.7071s.1054.5196.2929.7071l3 3c.3905.3905 1.0237.3905 1.4142 0s.3905-1.0237 0-1.4142l-1.2929-1.2929h3.5858c.5523 0 1-.4477 1-1s-.4477-1-1-1h-3.5858z"/><g clip-rule="evenodd" fill-rule="evenodd"><path d="m6.78606 14.5c1.47904.0003 2.95809.0006 4.43714 0 .1191-.0001.2614-.0001.3867.0101.1452.0119.3532.0423.5711.1534.2823.1438.5117.3733.6556.6555.111.218.1415.426.1533.5712.0103.1253.0102.2676.0102.3867-.0005 1.3154-.0005 2.6308 0 3.9462 0 .1192.0001.2614-.0102.3867-.0118.1453-.0423.3532-.1533.5712-.1439.2822-.3733.5117-.6556.6555-.2179.1111-.4259.1415-.5711.1534-.1253.0102-.2676.0102-.3867.0101-2.8774-.001-5.75529-.0153-8.63263.0001-.07137.0004-.21482.0011-.35099-.0229-.62102-.1095-1.10724-.5957-1.21674-1.2167-.024011-.1362-.023247-.2796-.022867-.351.003147-.5909-.027035-1.1932.076037-1.7777.36501-2.0701 1.98574-3.6908 4.0558-4.0558.43241-.0763.92757-.0762 1.65425-.076z"/><path d="m4.50005 7.5c0-3.03757 2.46243-5.5 5.50005-5.5 3.0375 0 5.5 2.46243 5.5 5.5 0 3.0376-2.4625 5.5-5.5 5.5-3.03762 0-5.50005-2.4624-5.50005-5.5z"/></g></g></svg>

<svg width="24" height="24" viewBox="0 0 24 24" fill="none" xmlns="http://www.w3.org/2000/svg">
<path d="M19.7071 15.7071C20.0976 15.3166 20.0976 14.6834 19.7071 14.2929C19.3166 13.9024 18.6834 13.9024 18.2929 14.2929L15.2929 17.2929C15.1054 17.4804 15 17.7348 15 18C15 18.2652 15.1054 18.5196 15.2929 18.7071L18.2929 21.7071C18.6834 22.0976 19.3166 22.0976 19.7071 21.7071C20.0976 21.3166 20.0976 20.6834 19.7071 20.2929L18.4142 19H22C22.5523 19 23 18.5523 23 18C23 17.4477 22.5523 17 22 17H18.4142L19.7071 15.7071Z" fill="#801ED7"/>
<path fill-rule="evenodd" clip-rule="evenodd" d="M6.78606 14.5C8.2651 14.5003 9.74415 14.5006 11.2232 14.5C11.3423 14.4999 11.4846 14.4999 11.6099 14.5101C11.7551 14.522 11.9631 14.5524 12.181 14.6635C12.4633 14.8073 12.6927 15.0368 12.8366 15.319C12.9476 15.537 12.9781 15.745 12.9899 15.8902C13.0002 16.0155 13.0001 16.1578 13.0001 16.2769C12.9996 17.5923 12.9996 18.9077 13.0001 20.2231C13.0001 20.3423 13.0002 20.4845 12.9899 20.6098C12.9781 20.7551 12.9476 20.963 12.8366 21.181C12.6927 21.4632 12.4633 21.6927 12.181 21.8365C11.9631 21.9476 11.7551 21.978 11.6099 21.9899C11.4846 22.0001 11.3423 22.0001 11.2232 22C8.3458 21.999 5.46791 21.9847 2.59057 22.0001C2.5192 22.0005 2.37575 22.0012 2.23958 21.9772C1.61856 21.8677 1.13234 21.3815 1.02284 20.7605C0.998829 20.6243 0.999593 20.4809 0.999973 20.4095C1.00312 19.8186 0.972938 19.2163 1.07601 18.6318C1.44102 16.5617 3.06175 14.941 5.13181 14.576C5.56422 14.4997 6.05938 14.4998 6.78606 14.5Z" fill="#801ED7"/>
<path fill-rule="evenodd" clip-rule="evenodd" d="M4.50005 7.5C4.50005 4.46243 6.96248 2 10.0001 2C13.0376 2 15.5001 4.46243 15.5001 7.5C15.5001 10.5376 13.0376 13 10.0001 13C6.96248 13 4.50005 10.5376 4.50005 7.5Z" fill="#801ED7"/>
</svg>
